X:173
T:Pensis, chief enclin
C:Manuscript de Montpellier (XIIIe siècle)
R:Motet
M:6/8
L:1/8
Q:1/4=120
K:C 
V:1
F2G2<A2 | AGF G2z | A2G A2G | F2E D2z | 
F2G2<A2 | AGF G2z | A2G A2G | F2E D2z | 
G2A FED | C3 G3 | A2G A2G | FED D2C | 
D2z F2F | G2A/2G/2 F/2E/2DE/2D/2 | DCz A2A | A2F GFE | 
D2z F2G | F/2E/2DC D2z | D2D C2D | E2F G2z | 
A/2B/2cB A2G | GFE G2A | cBA GF/2G/2F/2E/2 | D3 |]
V:2
D2z A,2C | D2D C2z | D2F D2z | C3 D2z | 
F2G D2z | E3 C2z | D2F D2z | F3 A2z | 
G2D F2z | E3 C2z | A,2C D2z | C3 D2z | 
D2F D2z | C3 D2z | F2G D2z | E3 C2z | 
D2F D2z | F3 A2z | G2D F2z | E3 C2z | 
A,2C D2z | C3 D2z | F2E C2z | D3 |]





